!!!OTL-incipit: ICH WOLLT EINMAL RECHT FRUEH AUFSTEHN
!!!ARE: Europa, Mitteleuropa, Deutschland
!!!SCT: Z0056
!!!TXL: @@DE
!!!YEM: Copyright 1995, estate of Helmut Schaffrath.
**kern	**text
*ICvox	*
!! Mixed meters:  3/4; 2/4
*M3/4	*
*k[f#c#]	*
*D:	*
=1	=1
4r	.
8r	.
!LO:TX:a:t=Einer.	!
{8d	Jch
8d	wollt
8f#	ein-
=2	=2
4e;	-mal
8r	.
8a	recht
16ddL	früh-
16bJ	.
16aL	-auf-
16f#J	.
=3	=3
4e;	-ſtehn,
8r}	.
{8a	und
8a	in
8a	den
=4	=4
8a	grü-
16gL	-nen
16f#J	.
8g	Wald,
!LO:TX:a:t=Alle.	!
8g	und
8g	in
8g	den
=5	=5
8g	grü-
16f#L	-nen
16eJ	.
4f#;	Wald
8r}	.
!LO:TX:a:t=Einer.	!
{16aL	ſpa-
16gJ	.
=6	=6
*M2/4	*
4f#	-ʒie-
4e	-ren
=7	=7
4a	gehn.
8r	.
8r}	.
==	==
!!!AGN: Sagen - Lied, Romanze, Tod
!!!ONB: ESAC (Essen Associative Code) Database: ZUCCAL
!!!AMT: irregular
!!!AIN: vox
!!!EED: Helmut Schaffrath
!!!EEV: 1.0
!!!GTL: I. Ernste Romanzen und Sagen.
!!!URL-scan: https://www.digitale-sammlungen.de/de/view/bsb11160571?page=110
!!!ENC: Anna Maria Matuszewska
!!!EEV: 2025/01/24
*-	*-
